X:263
T:Patricia Ann Douglas 
C:Joe Buchanan's Scottish Tome - Page 309.1
I:309 1
C:Lindsay Ross
R:Jig
Z:Carl Allison
L:1/8
M:6/8
K:A
E |"A"A2 A "E"GFE |"D"DEF "E"EFG |"A" A2 A e2 c |"B7" cBA "E7"B2 E |
"A"A2 A "E"GFE |"D" DFA d3 |"Bm" FBA "E7"GcB |"A"  A3 A2 :|
c/d/ | e2 c Eec |"E7" d2 B EdB |"A" cBA cec |"B7" cBA Bcd |
"A"e2 c Eec | "Bm"dBA "E7"GFE|"Bm" FcA "E7"GcB |"A" A3 Acd |
"A"e2 c Eec | "E7"d2 B EdB | "A"Ace "D"fed | "B7"cBA "E7"B2 E |
"A"A2 A "E"GFE | "D"DFA d3 | "Bm"FBA "E7"GcB | "A"A3 A2 |]

